img/svg/editors/laptop.svg

<svg width="29" height="29" viewBox="0 0 29 29" fill="none" xmlns="http://www.w3.org/2000/svg">
<g clip-path="url(#clip0_11577_150023)">
<path d="M25.7465 19.4205V6.29236C25.7465 5.51862 25.4552 4.77659 24.9366 4.22947C24.418 3.68236 23.7148 3.375 22.9813 3.375H6.38993C5.65654 3.375 4.9532 3.68236 4.43461 4.22947C3.91603 4.77659 3.6247 5.51862 3.6247 6.29236V19.4205M25.7465 19.4205H3.6247M25.7465 19.4205L27.5163 23.14C27.6229 23.3632 27.6734 23.6116 27.6629 23.8612C27.6524 24.1108 27.5812 24.3535 27.4564 24.5658C27.3314 24.7782 27.1569 24.953 26.9495 25.0737C26.7421 25.1944 26.5088 25.257 26.272 25.2552H3.0993C2.86245 25.257 2.62914 25.1944 2.42175 25.0737C2.21435 24.953 2.03983 24.7782 1.91493 24.5658C1.79001 24.3535 1.71889 24.1108 1.70839 23.8612C1.69789 23.6116 1.74836 23.3632 1.85495 23.14L3.6247 19.4205" stroke="#FBFBFB" stroke-width="1.5" stroke-linecap="round" stroke-linejoin="round"/>
<path d="M14.7073 11.5192C15.9704 11.5192 16.9943 10.4953 16.9943 9.23224C16.9943 7.9692 15.9704 6.94531 14.7073 6.94531C13.4443 6.94531 12.4204 7.9692 12.4204 9.23224C12.4204 10.4953 13.4443 11.5192 14.7073 11.5192Z" stroke="#FBFBFB" stroke-width="1.2"/>
<path d="M10.3706 16.5622C10.3706 16.5622 11.3687 13.594 14.4881 13.5322C17.6076 13.4702 19.0426 16.5622 19.0426 16.5622" stroke="#FBFBFB" stroke-width="1.2" stroke-linecap="round"/>
</g>
<defs>
<clipPath id="clip0_11577_150023">
<rect width="28" height="28" fill="white" transform="translate(0.199219 0.5)"/>
</clipPath>
</defs>
</svg>

<svg width="29" height="29" fill="none" xmlns="http://www.w3.org/2000/svg"><g clip-path="url(#clip0_11577_150023)" stroke="#FBFBFB"><path d="M25.747 19.42V6.293a3 3 0 00-.81-2.063 2.694 2.694 0 00-1.956-.854H6.39c-.733 0-1.437.307-1.955.854a3 3 0 00-.81 2.063v13.129m22.122 0H3.625m22.122 0l1.77 3.719a1.527 1.527 0 01-.06 1.426 1.43 1.43 0 01-.508.508c-.207.12-.44.183-.677.181H3.099c-.237.002-.47-.06-.677-.181a1.416 1.416 0 01-.507-.508 1.527 1.527 0 01-.06-1.426l1.77-3.72" stroke-width="1.5" stroke-linecap="round" stroke-linejoin="round"/><path d="M14.707 11.52a2.287 2.287 0 100-4.575 2.287 2.287 0 000 4.574z" stroke-width="1.2"/><path d="M10.37 16.562s.999-2.968 4.118-3.03c3.12-.062 4.555 3.03 4.555 3.03" stroke-width="1.2" stroke-linecap="round"/></g><defs><clipPath id="clip0_11577_150023"><path fill="#fff" transform="translate(.2 .5)" d="M0 0h28v28H0z"/></clipPath></defs></svg>
